X: 12055
T: Erse For Alba
R: strathspey
M: 4/4
K: Aminor
|:E>Ac>A B<GG>A|E>A c<d B2B>D|E>e (3efe d>cB>A|
E>A c/B/A/G/ A2A2|E>Ac>A B<GG>A|E>A c<d B2B>D|
E>e (3efe d>cB>G|E>A c/B/A/G/ A2A2|a>_b a>g f>dd>f|
e>f g<c' a2a2|a>_ba>g f<d d>g|f>e a<e d2d>A|
a>_b a>g f<d d>f|e>f g<c' a2a2|d'>c'_b>a (3_bag a>fg>e|
M:6/4
[1 f>e A<e d2c2_B2 A>D:|2 f>e A<e d2d2||

